X:232
T:Nipper
R:jig 32
C:John Kirkpatrick
B:English Choice, Nick Barber, pub mally.com
M:6/8
L:1/8
Q:1/4=120
K:G
|:"G"B2d "D"cBA|"G"G2B D2B|
"G"G2B D2B|"D"ABc D3|
"G"B2d "D"cBA|"G"G2B D2B|
"A"A2B ^cBA|"D"d6:|
:"G"g3 "C"e3|"G"ded B3|
"D"cdc A3|"G"BdB GBd|
g3 "C"e3|"G"ded B3|
"D"ABc DEF|"G"G6:|]

